flaticon/emoticons/dazed-3.svg

<svg xmlns="http://www.w3.org/2000/svg" width="32" height="32" viewBox="0 0 24 24">
    <path d="M10.726562 10.921875C10.726562 10.695312 10.542969 10.515625 10.320312 10.515625 10.09375 10.515625 9.914062 10.695312 9.914062 10.921875 9.914062 12.496094 9.191406 13.363281 7.878906 13.363281 6.824219 13.363281 5.695312 12.902344 5.695312 11.609375 5.695312 10.707031 6.429688 9.96875 7.335938 9.96875 8.003906 9.96875 8.546875 10.511719 8.546875 11.179688 8.546875 11.660156 8.15625 12.050781 7.675781 12.050781 7.34375 12.050781 7.074219 11.78125 7.074219 11.449219 7.074219 11.234375 7.246094 11.058594 7.460938 11.058594 7.6875 11.058594 7.871094 10.878906 7.871094 10.652344 7.871094 10.425781 7.6875 10.246094 7.460938 10.246094 6.800781 10.246094 6.257812 10.785156 6.257812 11.449219 6.257812 12.230469 6.894531 12.863281 7.675781 12.863281 8.601562 12.863281 9.359375 12.109375 9.359375 11.179688 9.359375 10.066406 8.449219 9.15625 7.335938 9.15625 5.980469 9.15625 4.882812 10.257812 4.882812 11.609375 4.882812 13.144531 6.085938 14.175781 7.878906 14.175781 9.636719 14.175781 10.726562 12.929688 10.726562 10.921875zM16.269531 8.480469C14.515625 8.480469 13.421875 9.726562 13.421875 11.734375 13.421875 11.960938 13.605469 12.140625 13.832031 12.140625 14.054688 12.140625 14.238281 11.960938 14.238281 11.734375 14.238281 10.160156 14.960938 9.292969 16.269531 9.292969 17.328125 9.292969 18.457031 9.753906 18.457031 11.046875 18.457031 11.953125 17.71875 12.6875 16.816406 12.6875 16.148438 12.6875 15.605469 12.144531 15.605469 11.476562 15.605469 10.996094 15.996094 10.605469 16.476562 10.605469 16.808594 10.605469 17.078125 10.875 17.078125 11.207031 17.078125 11.421875 16.902344 11.597656 16.6875 11.597656 16.460938 11.597656 16.28125 11.78125 16.28125 12.003906 16.28125 12.230469 16.460938 12.410156 16.6875 12.410156 17.351562 12.410156 17.890625 11.871094 17.890625 11.207031 17.890625 10.425781 17.257812 9.792969 16.476562 9.792969 15.546875 9.792969 14.792969 10.546875 14.792969 11.476562 14.792969 12.59375 15.699219 13.5 16.816406 13.5 18.167969 13.5 19.269531 12.398438 19.269531 11.046875 19.269531 9.511719 18.0625 8.480469 16.269531 8.480469zM12.203125 15.457031C9.238281 15.457031 7.320312 17.054688 7.320312 19.527344 7.320312 19.980469 7.375 20.621094 7.828125 20.953125 8.34375 21.328125 9.0625 21.09375 9.894531 20.820312 10.585938 20.59375 11.371094 20.339844 12.203125 20.339844 13.035156 20.339844 13.820312 20.59375 14.511719 20.820312 15.035156 20.992188 15.511719 21.144531 15.921875 21.144531 16.167969 21.144531 16.386719 21.089844 16.578125 20.953125 17.03125 20.621094 17.085938 19.980469 17.085938 19.527344 17.085938 17.054688 15.167969 15.457031 12.203125 15.457031zM16.101562 20.292969C15.921875 20.421875 15.308594 20.222656 14.765625 20.046875 14.582031 19.988281 14.382812 19.921875 14.175781 19.859375 13.960938 18.96875 13.164062 18.300781 12.203125 18.300781 11.246094 18.300781 10.445312 18.96875 10.230469 19.859375 10.023438 19.921875 9.828125 19.988281 9.640625 20.046875 9.101562 20.222656 8.488281 20.425781 8.304688 20.292969 8.265625 20.265625 8.136719 20.121094 8.136719 19.527344 8.136719 17.125 10.238281 16.269531 12.203125 16.269531 14.167969 16.269531 16.269531 17.125 16.269531 19.527344 16.269531 20.121094 16.140625 20.265625 16.101562 20.292969zM16.101562 20.292969"/>
    <path d="M 12 0 C 6.054688 0 1.21875 4.835938 1.21875 10.78125 L 1.21875 15.246094 C 1.21875 15.25 1.21875 15.25 1.21875 15.25 C 1.21875 15.25 1.21875 15.253906 1.21875 15.253906 L 1.21875 20.746094 C 1.21875 21.867188 2.132812 22.78125 3.253906 22.78125 L 5.917969 22.78125 C 5.9375 22.789062 5.957031 22.796875 5.976562 22.804688 C 7.402344 23.476562 9.121094 23.878906 11.078125 23.976562 C 11.121094 23.976562 11.164062 23.980469 11.210938 23.980469 C 11.46875 23.992188 11.730469 24 12 24 C 12.269531 24 12.53125 23.992188 12.792969 23.980469 C 12.835938 23.980469 12.878906 23.976562 12.921875 23.976562 C 14.878906 23.878906 16.597656 23.476562 18.023438 22.804688 C 18.042969 22.796875 18.0625 22.789062 18.082031 22.78125 L 20.746094 22.78125 C 21.867188 22.78125 22.78125 21.867188 22.78125 20.746094 L 22.78125 10.78125 C 22.78125 4.835938 17.945312 0 12 0 Z M 17.894531 21.964844 L 17.8125 22.007812 C 16.660156 22.566406 15.289062 22.929688 13.777344 23.089844 C 13.667969 23.101562 13.558594 23.113281 13.445312 23.125 C 13.285156 23.136719 13.125 23.148438 12.960938 23.15625 C 12.648438 23.175781 12.328125 23.1875 12 23.1875 C 11.671875 23.1875 11.351562 23.175781 11.039062 23.15625 C 10.875 23.148438 10.714844 23.136719 10.554688 23.121094 C 10.445312 23.113281 10.332031 23.101562 10.222656 23.089844 C 8.714844 22.929688 7.339844 22.566406 6.191406 22.007812 L 6.105469 21.964844 L 6.070312 21.964844 C 3.476562 20.65625 2.035156 18.34375 2.035156 15.253906 C 2.035156 15.253906 2.035156 15.25 2.035156 15.25 C 2.035156 15.25 2.035156 15.25 2.035156 15.246094 C 2.039062 10.019531 6.425781 5.550781 11.796875 5.289062 L 12.183594 5.289062 C 17.578125 5.550781 21.964844 10.023438 21.964844 15.253906 C 21.964844 18.34375 20.523438 20.65625 17.933594 21.964844 Z M 3.253906 21.964844 C 2.582031 21.964844 2.035156 21.417969 2.035156 20.746094 L 2.035156 19.027344 C 2.597656 20.195312 3.441406 21.1875 4.535156 21.964844 Z M 21.964844 20.746094 C 21.964844 21.417969 21.417969 21.964844 20.746094 21.964844 L 19.464844 21.964844 C 20.558594 21.1875 21.402344 20.195312 21.964844 19.027344 Z M 12.203125 4.472656 L 11.777344 4.476562 C 7.390625 4.691406 3.625 7.492188 2.035156 11.28125 L 2.035156 10.78125 C 2.035156 5.285156 6.503906 0.8125 12 0.8125 C 17.496094 0.8125 21.964844 5.285156 21.964844 10.78125 L 21.964844 11.265625 C 20.371094 7.484375 16.601562 4.6875 12.203125 4.472656 Z M 12.203125 4.472656"/>
</svg>

<svg xmlns="http://www.w3.org/2000/svg" width="32" height="32" viewBox="0 0 24 24">
    <path d="M10.727 10.922a.406.406 0 1 0-.813 0c0 1.574-.723 2.441-2.035 2.441-1.055 0-2.184-.46-2.184-1.754 0-.902.735-1.64 1.64-1.64.669 0 1.212.543 1.212 1.21 0 .481-.39.872-.871.872a.602.602 0 0 1-.602-.602c0-.215.172-.39.387-.39a.407.407 0 1 0 0-.813c-.66 0-1.203.54-1.203 1.203 0 .781.637 1.414 1.418 1.414.926 0 1.683-.754 1.683-1.683 0-1.114-.91-2.024-2.023-2.024a2.455 2.455 0 0 0-2.453 2.453c0 1.536 1.203 2.567 2.996 2.567 1.758 0 2.848-1.246 2.848-3.254zm0 0M16.27 8.48c-1.754 0-2.848 1.247-2.848 3.254 0 .227.183.407.41.407.223 0 .406-.18.406-.407 0-1.574.723-2.441 2.032-2.441 1.058 0 2.187.46 2.187 1.754 0 .906-.738 1.64-1.64 1.64-.669 0-1.212-.542-1.212-1.21 0-.48.391-.872.872-.872.332 0 .601.27.601.602 0 .215-.176.39-.39.39a.406.406 0 1 0 0 .813c.664 0 1.203-.539 1.203-1.203 0-.781-.633-1.414-1.414-1.414-.93 0-1.684.754-1.684 1.684 0 1.117.906 2.023 2.023 2.023a2.457 2.457 0 0 0 2.454-2.453c0-1.535-1.207-2.567-3-2.567zm0 0M12.203 15.457c-2.965 0-4.883 1.598-4.883 4.07 0 .453.055 1.094.508 1.426.516.375 1.234.14 2.067-.133.69-.226 1.476-.48 2.308-.48.832 0 1.617.254 2.309.48.523.172 1 .325 1.41.325.246 0 .465-.055.656-.192.453-.332.508-.973.508-1.426 0-2.472-1.918-4.07-4.883-4.07zm3.899 4.836c-.18.129-.793-.07-1.336-.246-.184-.059-.383-.125-.59-.188a2.032 2.032 0 0 0-1.973-1.558c-.957 0-1.758.668-1.973 1.558-.207.063-.402.13-.59.188-.538.176-1.152.379-1.335.246-.04-.027-.168-.172-.168-.766 0-2.402 2.101-3.257 4.066-3.257 1.965 0 4.067.855 4.067 3.257 0 .594-.13.739-.168.766zm0 0"/>
    <path d="M12 0C6.055 0 1.219 4.836 1.219 10.781v9.965c0 1.121.914 2.035 2.035 2.035h2.664l.059.024c1.425.672 3.144 1.074 5.101 1.172.043 0 .086.003.133.003.258.012.52.02.789.02.27 0 .531-.008.793-.02l.129-.003c1.957-.098 3.676-.5 5.101-1.172l.059-.024h2.664a2.039 2.039 0 0 0 2.035-2.035v-9.965C22.781 4.836 17.945 0 12 0zm5.895 21.965l-.082.043c-1.153.558-2.524.922-4.036 1.082l-.332.035c-.16.012-.32.023-.484.031a15.386 15.386 0 0 1-2.406-.035 9.536 9.536 0 0 1-.332-.031c-1.508-.16-2.883-.524-4.032-1.082l-.086-.043H6.07c-2.593-1.309-4.035-3.621-4.035-6.711v-.004-.004c.004-5.226 4.39-9.695 9.762-9.957h.387c5.394.262 9.78 4.734 9.78 9.965 0 3.09-1.44 5.402-4.03 6.71zm-14.641 0a1.22 1.22 0 0 1-1.219-1.219v-1.719a7.663 7.663 0 0 0 2.5 2.938zm18.71-1.219a1.22 1.22 0 0 1-1.218 1.219h-1.281a7.663 7.663 0 0 0 2.5-2.938zm-9.76-16.273l-.427.004c-4.386.214-8.152 3.015-9.742 6.804v-.5C2.035 5.285 6.504.812 12 .812c5.496 0 9.965 4.473 9.965 9.97v.484c-1.594-3.782-5.363-6.579-9.762-6.793zm0 0"/>
</svg>
